svgs/duotone/disc-drive.svg

<svg xmlns="http://www.w3.org/2000/svg" viewBox="0 0 512 512"><!-- Font Awesome Pro 6.0.0-alpha2 by @fontawesome - https://fontawesome.com License - https://fontawesome.com/license (Commercial License) --><defs><style>.fa-secondary{opacity:.4}</style></defs><path d="M256 96C167.625 96 96 167.625 96 256S167.625 416 256 416S416 344.375 416 256S344.375 96 256 96ZM256 288C238.375 288 224 273.625 224 256S238.375 224 256 224S288 238.375 288 256S273.625 288 256 288Z" class="fa-secondary"/><path d="M496 416H480V96C480 60.625 451.375 32 416 32H96C60.625 32 32 60.625 32 96V416H16C7.125 416 0 423.125 0 432V464C0 472.875 7.125 480 16 480H496C504.875 480 512 472.875 512 464V432C512 423.125 504.875 416 496 416ZM256 416C167.625 416 96 344.375 96 256S167.625 96 256 96S416 167.625 416 256S344.375 416 256 416ZM256 224C238.375 224 224 238.375 224 256S238.375 288 256 288C273.625 288 288 273.625 288 256S273.625 224 256 224Z" class="fa-primary"/></svg>

<svg xmlns="http://www.w3.org/2000/svg" viewBox="0 0 512 512"><!--! Font Awesome Pro 6.3.0 by @fontawesome - https://fontawesome.com License - https://fontawesome.com/license (Commercial License) Copyright 2023 Fonticons, Inc. --><defs><style>.fa-secondary{opacity:.4}</style></defs><path class="fa-primary" d="M496 416H480V96c0-35.38-28.62-64-64-64H96C60.62 32 32 60.62 32 96v320H16C7.125 416 0 423.1 0 432v32C0 472.9 7.125 480 15.1 480h480c8.875 0 16-7.125 16-16v-32C512 423.1 504.9 416 496 416zM256 416c-88.38 0-160-71.63-160-160s71.62-160 160-160s160 71.62 160 160S344.4 416 256 416zM256 224C238.4 224 224 238.4 224 256s14.38 32 32 32c17.62 0 32-14.38 32-32S273.6 224 256 224z"/><path class="fa-secondary" d="M256 96C167.6 96 96 167.6 96 256s71.63 160 160 160s160-71.63 160-160S344.4 96 256 96zM256 288C238.4 288 224 273.6 224 256s14.38-32 32-32s32 14.38 32 32S273.6 288 256 288z"/></svg>
